svg/map/earth_2_fill.svg

<?xml version="1.0" encoding="UTF-8"?>
<svg width="24px" height="24px" viewBox="0 0 24 24" version="1.1" xmlns="http://www.w3.org/2000/svg" xmlns:xlink="http://www.w3.org/1999/xlink">
    <title>earth_2_fill</title>
    <g id="Icon" stroke="none" stroke-width="1" fill="none" fill-rule="evenodd">
        <g id="Map" transform="translate(-480.000000, -144.000000)" fill-rule="nonzero">
            <g id="earth_2_fill" transform="translate(480.000000, 144.000000)">
                <path d="M24,0 L24,24 L0,24 L0,0 L24,0 Z M12.5935,23.2578 L12.5819,23.2595 L12.5109,23.295 L12.4919,23.2987 L12.4767,23.295 L12.4057,23.2595 C12.3958,23.2564 12.387,23.259 12.3821,23.2649 L12.378,23.2758 L12.3609,23.7031 L12.3659,23.7235 L12.3769,23.7357 L12.4805,23.8097 L12.4953,23.8136 L12.5071,23.8097 L12.6107,23.7357 L12.6233,23.7197 L12.6267,23.7031 L12.6096,23.2758 C12.6076,23.2657 12.601,23.2593 12.5935,23.2578 Z M12.8584,23.1453 L12.8445,23.1473 L12.6598,23.2397 L12.6499,23.2499 L12.6472,23.2611 L12.6651,23.6906 L12.6699,23.7034 L12.6784,23.7105 L12.8793,23.8032 C12.8914,23.8069 12.9022,23.803 12.9078,23.7952 L12.9118,23.7812 L12.8777,23.1665 C12.8753,23.1546 12.8674,23.147 12.8584,23.1453 Z M12.143,23.1473 C12.1332,23.1424 12.1222,23.1453 12.1156,23.1526 L12.1099,23.1665 L12.0758,23.7812 C12.0751,23.7927 12.0828,23.8019 12.0926,23.8046 L12.1083,23.8032 L12.3092,23.7105 L12.3186,23.7024 L12.3225,23.6906 L12.3404,23.2611 L12.3372,23.2485 L12.3278,23.2397 L12.143,23.1473 Z" id="MingCute"></path>
                <path d="M21.8149,13.9249 C21.0672,17.7591 18.1288,20.8098 14.3557,21.7209 C14.8658,21.1194 15.3072,20.3386 15.6736,19.4544 C16.0388,18.5734 16.3447,17.5529 16.5703,16.4341 C18.2473,16.0024 19.7664,15.3379 21.0399,14.4889 C21.3083,14.31 21.5671,14.1218 21.8149,13.9249 Z M2.18505,13.9249 C2.43284,14.1218 2.69157,14.31 2.95997,14.4889 C4.23341,15.3379 5.75246,16.0024 7.42931,16.434 C7.65498,17.5529 7.9609,18.5734 8.32603,19.4544 C8.69245,20.3385 9.13384,21.1193 9.64393,21.7209 C5.87096,20.8097 2.93266,17.759 2.18505,13.9249 Z M14.4271,16.845 C14.2554,17.5244 14.0519,18.1437 13.826,18.6887 C13.4787,19.5267 13.097,20.1443 12.735,20.5351 C12.3642,20.9354 12.1106,21.0005 11.9998,21.0005 C11.889,21.0005 11.6355,20.9354 11.2647,20.5351 C10.9027,20.1443 10.5209,19.5267 10.1736,18.6887 C9.94775,18.1437 9.74425,17.5243 9.57259,16.845 C10.3607,16.947 11.1723,17 12,17 C12.8275,17 13.6391,16.947 14.4271,16.845 Z M14.9626,10.7287 C14.987,11.1438 14.9998,11.5684 14.9998,12.0005 C14.9998,12.9661 14.9359,13.894 14.8213,14.7641 C13.9235,14.9175 12.9783,15 12,15 C11.0215,15 10.0762,14.9175 9.17837,14.764 C9.06372,13.8939 8.99983,12.9661 8.99983,12.0005 C8.99983,11.5684 9.01263,11.1438 9.03704,10.7286 C9.98312,10.9061 10.9774,11 12,11 C13.0224,11 14.0166,10.9061 14.9626,10.7287 Z M21.0662,7.77492 C21.5265,8.76098 21.8307,9.83458 21.9469,10.9639 C21.4448,11.637 20.7687,12.266 19.9305,12.8248 C19.0607,13.4047 18.0344,13.8939 16.8914,14.2607 C16.9622,13.5303 16.9998,12.774 16.9998,12.0005 C16.9998,11.3937 16.9767,10.7975 16.9325,10.2162 C17.9183,9.88259 18.8226,9.45033 19.616,8.93464 C20.1464,8.58989 20.635,8.20164 21.0662,7.77492 Z M2.93373,7.77492 C3.36495,8.20164 3.85351,8.58989 4.3839,8.93464 C5.17721,9.45029 6.08149,9.88252 7.06712,10.2161 C7.02298,10.7975 6.99983,11.3937 6.99983,12.0005 C6.99983,12.774 7.03744,13.5303 7.10821,14.2606 C5.96533,13.8939 4.93916,13.4047 4.06937,12.8248 C3.23118,12.266 2.55507,11.637 2.05298,10.9639 C2.16923,9.83457 2.47341,8.76098 2.93373,7.77492 Z M11.9998,3.00049 C12.1106,3.00049 12.3642,3.0656 12.735,3.4659 C13.097,3.85672 13.4787,4.47431 13.826,5.31229 C14.2167,6.25496 14.5405,7.41996 14.7483,8.73311 C13.8855,8.90567 12.9628,9 12,9 C11.037,9 10.1142,8.90565 9.25139,8.73307 C9.45922,7.41993 9.78295,6.25495 10.1736,5.31229 C10.5209,4.47431 10.9027,3.85672 11.2647,3.4659 C11.6355,3.0656 11.889,3.00049 11.9998,3.00049 Z M14.3546,2.27881 C16.6427,2.83105 18.6239,4.17009 19.9958,5.99354 C19.6133,6.44381 19.1226,6.86998 18.526,7.25775 C17.9831,7.61062 17.3644,7.92217 16.6843,8.18062 C16.4529,6.82004 16.1045,5.58615 15.6736,4.54655 C15.3069,3.66179 14.8652,2.8805 14.3546,2.27881 Z M9.64497,2.27888 C9.13445,2.88056 8.6927,3.66183 8.32603,4.54655 C7.89518,5.58613 7.54677,6.81999 7.31536,8.18054 C6.63534,7.9221 6.0167,7.61058 5.47387,7.25775 C4.8773,6.86998 4.38665,6.44381 4.00407,5.99354 C5.37596,4.17017 7.35704,2.83117 9.64497,2.27888 Z" id="形状" fill="#09244B"></path>
            </g>
        </g>
    </g>
</svg>

<svg xmlns="http://www.w3.org/2000/svg" width="24" height="24"><g fill="none" fill-rule="nonzero"><path d="M24 0v24H0V0h24ZM12.594 23.258l-.012.002-.071.035-.02.004-.014-.004-.071-.036c-.01-.003-.019 0-.024.006l-.004.01-.017.428.005.02.01.013.104.074.015.004.012-.004.104-.074.012-.016.004-.017-.017-.427c-.002-.01-.009-.017-.016-.018Zm.264-.113-.014.002-.184.093-.01.01-.003.011.018.43.005.012.008.008.201.092c.012.004.023 0 .029-.008l.004-.014-.034-.614c-.003-.012-.01-.02-.02-.022Zm-.715.002a.023.023 0 0 0-.027.006l-.006.014-.034.614c0 .012.007.02.017.024l.015-.002.201-.093.01-.008.003-.011.018-.43-.003-.012-.01-.01-.184-.092Z"/><path fill="#09244B" d="M21.815 13.925a10.013 10.013 0 0 1-7.46 7.796c.51-.602.952-1.382 1.319-2.267.365-.88.67-1.901.896-3.02 1.677-.432 3.196-1.096 4.47-1.945.268-.179.527-.367.775-.564Zm-19.63 0c.248.197.507.385.775.564 1.273.849 2.792 1.513 4.47 1.945.225 1.119.53 2.14.896 3.02.366.884.808 1.665 1.318 2.267a10.013 10.013 0 0 1-7.459-7.796Zm12.242 2.92c-.172.68-.375 1.299-.601 1.844-.347.838-.729 1.455-1.091 1.846-.37.4-.624.465-.735.465-.111 0-.364-.065-.735-.465-.362-.39-.744-1.008-1.091-1.846a13.45 13.45 0 0 1-.601-1.844c.788.102 1.6.155 2.427.155.828 0 1.64-.053 2.427-.155Zm.536-6.116a21.686 21.686 0 0 1-.142 4.035c-.897.154-1.843.236-2.821.236a16.76 16.76 0 0 1-2.822-.236 21.212 21.212 0 0 1-.141-4.035c.946.177 1.94.271 2.963.271 1.022 0 2.017-.094 2.963-.271Zm6.103-2.954c.46.986.765 2.06.88 3.189-.501.673-1.177 1.302-2.016 1.86-.87.58-1.896 1.07-3.039 1.437a23.46 23.46 0 0 0 .042-4.045c.985-.333 1.89-.766 2.683-1.281a9.146 9.146 0 0 0 1.45-1.16Zm-18.132 0c.43.427.92.815 1.45 1.16.793.515 1.697.948 2.683 1.281a23.591 23.591 0 0 0 .041 4.045c-1.143-.367-2.169-.856-3.039-1.436-.838-.559-1.514-1.188-2.016-1.861.116-1.13.42-2.203.88-3.19ZM12 3c.11 0 .364.066.735.466.362.39.744 1.008 1.091 1.846.39.943.714 2.108.922 3.421C13.886 8.906 12.963 9 12 9c-.963 0-1.886-.094-2.749-.267.208-1.313.532-2.478.923-3.42.347-.839.729-1.456 1.09-1.847.372-.4.625-.466.736-.466Zm2.355-.721a10.007 10.007 0 0 1 5.64 3.715 6.72 6.72 0 0 1-1.469 1.264 9.716 9.716 0 0 1-1.842.923c-.231-1.361-.58-2.595-1.01-3.634-.367-.885-.809-1.666-1.32-2.268Zm-4.71 0c-.51.602-.952 1.383-1.319 2.268-.43 1.04-.78 2.273-1.01 3.634a9.715 9.715 0 0 1-1.842-.923 6.723 6.723 0 0 1-1.47-1.264 10.007 10.007 0 0 1 5.641-3.715Z"/></g></svg>
